src/assets/images/addIcon.svg

<svg width="113" height="107" viewBox="0 0 113 107" fill="none" xmlns="http://www.w3.org/2000/svg">
<g clip-path="url(#clip0_6_229)">
<mask id="mask0_6_229" style="mask-type:luminance" maskUnits="userSpaceOnUse" x="0" y="0" width="113" height="107">
<path d="M112.843 0H0.549072V107H112.843V0Z" fill="white"/>
</mask>
<g mask="url(#mask0_6_229)">
<path d="M57.1272 59.3129C57.9471 59.3129 58.6662 59.3366 59.3836 59.3089C62.9302 59.1719 66.4759 58.984 70.0235 58.8963C71.1546 58.8677 72.2853 58.9806 73.3927 59.2331C74.7057 59.5373 75.378 60.4194 75.4472 61.5348C75.5136 62.5954 74.878 63.5702 73.6809 64.1432C71.8722 65.0091 69.9346 65.2097 67.9926 65.2516C65.1137 65.3143 62.2335 65.2877 59.3538 65.2975C58.6901 65.3 58.0246 65.2975 57.2161 65.2975C57.1523 65.9385 57.0652 66.4809 57.0497 67.0233C56.9094 71.8374 56.7935 76.6522 56.6372 81.4657C56.6088 82.1813 56.4896 82.8893 56.2828 83.57C56.1302 84.1672 55.8039 84.6954 55.3515 85.0786C54.8992 85.4619 54.344 85.6781 53.7689 85.6971C53.1941 85.7821 52.6102 85.6531 52.1129 85.3329C51.6151 85.0126 51.2342 84.5194 51.0326 83.935C50.6136 82.733 50.417 81.4558 50.4542 80.1733C50.6375 75.6484 50.9752 71.1317 51.2493 66.6131C51.2704 66.2724 51.2521 65.9281 51.2521 65.5031C50.9766 65.4385 50.697 65.3981 50.4161 65.3823C46.0002 65.5677 41.5859 65.7837 37.1698 65.9454C36.0383 66.0095 34.9035 65.9568 33.7813 65.7881C32.4837 65.5653 31.7939 64.6806 31.7187 63.5165C31.638 62.2453 32.2509 61.2128 33.6557 60.9243C35.5627 60.558 37.4884 60.3173 39.4225 60.2024C42.6951 59.9667 45.9741 59.842 49.2505 59.663C49.911 59.627 50.5705 59.556 51.3589 59.4904C51.4469 58.9278 51.5083 58.3603 51.5422 57.7908C51.5775 54.6266 51.5707 51.462 51.6193 48.2985C51.6344 47.293 51.7196 46.2902 51.875 45.2985C51.9735 44.8616 52.1903 44.466 52.4983 44.1621C52.8063 43.8582 53.1918 43.6595 53.6047 43.5915C54.0178 43.5235 54.4403 43.5894 54.8189 43.7803C55.197 43.9711 55.5142 44.2786 55.7301 44.6638C56.0643 45.3634 56.2719 46.1248 56.342 46.9078C56.5987 50.4176 56.7779 53.9338 56.9878 57.4475C57.0212 58.0052 57.0707 58.5619 57.1272 59.3129Z" fill="black"/>
<path d="M96.7506 0.289347C98.6893 0.519125 100.631 0.71248 102.564 0.98516C108.836 1.87271 111.948 5.58077 112.196 12.4071C112.597 23.4123 112.334 34.3987 111.889 45.4035C111.494 55.2105 111.843 65.0501 111.773 74.8743C111.737 79.9085 111.748 84.9678 111.297 89.9695C110.335 100.67 104.663 106.215 94.6523 106.606C92.2271 106.701 89.794 106.627 87.3674 106.624C74.8364 106.611 62.305 106.644 49.7744 106.563C39.0435 106.494 28.3119 106.381 17.5849 106.092C14.6144 105.963 11.6643 105.504 8.78194 104.72C4.47351 103.618 1.98332 100.456 1.23898 95.7878C0.988405 94.3011 0.868555 92.7925 0.881006 91.2816C1.08588 80.1961 1.38518 69.1131 1.57311 58.0275C1.68861 51.1411 1.68223 44.2513 1.66481 37.3634C1.59288 36.022 1.43499 34.6871 1.19226 33.369C0.677079 29.489 1.95448 26.462 5.39341 25.0853C8.44323 23.7922 11.6436 22.9558 14.9049 22.5996C23.7967 21.8486 32.7197 21.4108 41.6377 21.0794C47.1926 20.8733 52.7609 21.0871 58.3215 21.1108C59.0796 21.1142 59.8377 21.1108 60.6338 21.1108C60.6338 18.8317 60.588 16.8357 60.6463 14.8431C60.7063 12.747 60.7723 10.6424 60.9973 8.56159C61.4557 4.31214 63.0658 2.26543 66.9897 1.71613C71.2522 1.11949 75.5673 0.97147 79.8635 0.672165C82.3537 0.498598 84.8496 0.413147 87.3426 0.287903L96.7506 0.289347ZM68.2506 9.68349C68.2506 12.7377 68.2263 15.5797 68.2602 18.4209C68.2781 19.9313 68.4774 21.4418 68.4536 22.9497C68.4041 26.0428 67.4453 27.3803 64.6416 28.078C62.9806 28.5325 61.2769 28.7834 59.5636 28.8263C54.0007 28.8218 48.4383 28.6686 42.8762 28.5331C33.9446 28.3019 25.0083 28.6475 16.1154 29.5683C13.8629 29.8347 11.632 30.2808 9.44102 30.9031C7.37848 31.4608 7.16442 31.8556 7.09012 34.0321C7.03285 35.7086 7.06816 37.3924 7.10439 39.0718C7.31386 48.7289 7.60258 58.385 7.73281 68.0436C7.8492 76.6947 7.74743 85.3511 7.84277 94.0006C7.87759 97.1681 8.81676 98.2442 11.7318 98.5948C15.3852 99.0342 19.0589 99.5259 22.7256 99.5472C36.5157 99.6276 50.307 99.507 64.0976 99.4978C70.9124 99.4933 77.7278 99.5692 84.5431 99.6033C88.4599 99.6231 92.3803 99.7703 96.2929 99.6102C100.666 99.4303 102.886 97.4717 103.958 92.9261C104.459 90.8111 104.723 88.6392 104.743 86.4567C104.779 80.5771 104.56 74.6963 104.555 68.8157C104.547 60.5861 104.598 52.3565 104.707 44.1269C104.786 37.7429 105.045 31.3609 105.089 24.977C105.113 21.1994 104.924 17.4168 104.74 13.6412C104.569 10.1275 104.213 9.78579 101.044 9.47169C100.264 9.39429 99.4803 9.29632 98.6992 9.29731C89.4522 9.31013 80.2067 9.33669 70.9619 9.37775C70.0532 9.42867 69.1484 9.53073 68.2506 9.68349Z" fill="black"/>
</g>
</g>
<defs>
<clipPath id="clip0_6_229">
<rect width="113" height="107" fill="white"/>
</clipPath>
</defs>
</svg>

<svg width="113" height="107" fill="none" xmlns="http://www.w3.org/2000/svg"><g clip-path="url(#a)"><mask id="b" style="mask-type:luminance" maskUnits="userSpaceOnUse" x="0" y="0" width="113" height="107"><path d="M112.843 0H.549v107h112.294V0z" fill="#fff"/></mask><g mask="url(#b)" fill="#000"><path d="M57.127 59.313c.82 0 1.54.024 2.257-.004 3.546-.137 7.092-.325 10.64-.413a13.602 13.602 0 0 1 3.369.337c1.313.304 1.985 1.186 2.054 2.302.067 1.06-.569 2.035-1.766 2.608-1.809.866-3.746 1.067-5.688 1.109-2.88.062-5.76.036-8.64.046-.663.002-1.328 0-2.137 0-.064.64-.15 1.183-.166 1.725-.14 4.814-.256 9.63-.413 14.443a8.387 8.387 0 0 1-.354 2.104 2.92 2.92 0 0 1-.931 1.509c-.453.383-1.008.6-1.583.618a2.401 2.401 0 0 1-1.656-.364 2.702 2.702 0 0 1-1.08-1.398 10.512 10.512 0 0 1-.579-3.762c.184-4.525.521-9.041.795-13.56.021-.34.003-.685.003-1.11a4.856 4.856 0 0 0-.836-.12c-4.416.185-8.83.4-13.246.562a16.507 16.507 0 0 1-3.389-.157c-1.297-.223-1.987-1.107-2.062-2.271-.081-1.272.532-2.304 1.937-2.593a44.581 44.581 0 0 1 5.767-.722c3.272-.235 6.551-.36 9.828-.539.66-.036 1.32-.107 2.108-.173.088-.562.15-1.13.183-1.7.035-3.163.029-6.328.077-9.492.015-1.005.1-2.008.256-3 .099-.436.315-.832.623-1.136a2.052 2.052 0 0 1 1.107-.57 1.976 1.976 0 0 1 1.214.188c.378.191.695.499.911.884.334.7.542 1.46.612 2.244.257 3.51.436 7.026.646 10.54.033.557.083 1.114.14 1.865z"/><path d="M96.75.29c1.94.23 3.881.422 5.814.695 6.272.888 9.384 4.596 9.632 11.422.401 11.005.138 21.992-.307 32.996-.395 9.808-.046 19.647-.116 29.471-.036 5.035-.025 10.094-.476 15.096-.962 10.7-6.634 16.245-16.645 16.636-2.425.095-4.858.021-7.285.018-12.53-.013-25.062.02-37.593-.061-10.73-.069-21.462-.182-32.19-.471a40.166 40.166 0 0 1-8.802-1.372c-4.308-1.102-6.799-4.264-7.543-8.932a25.839 25.839 0 0 1-.358-4.506c.205-11.086.504-22.169.692-33.254.116-6.887.11-13.777.092-20.665a31.322 31.322 0 0 0-.473-3.994c-.515-3.88.762-6.907 4.201-8.284a33.74 33.74 0 0 1 9.512-2.485c8.892-.751 17.815-1.19 26.733-1.52 5.555-.207 11.123.007 16.684.03.758.004 1.516 0 2.312 0 0-2.278-.046-4.274.012-6.267.06-2.096.126-4.2.351-6.281.459-4.25 2.069-6.297 5.993-6.846C71.252 1.12 75.567.971 79.864.672 82.353.5 84.85.413 87.343.288l9.408.001zm-28.5 9.393c0 3.055-.024 5.897.01 8.738.018 1.51.217 3.02.194 4.529-.05 3.093-1.009 4.43-3.812 5.128a21.248 21.248 0 0 1-5.078.748c-5.563-.004-11.126-.157-16.688-.293a207.628 207.628 0 0 0-26.76 1.035 42.84 42.84 0 0 0-6.675 1.335c-2.063.558-2.277.953-2.35 3.13-.058 1.676-.023 3.36.013 5.039.21 9.657.499 19.313.629 28.972.116 8.65.014 17.307.11 25.957.035 3.167.974 4.243 3.889 4.594 3.653.44 7.327.93 10.994.952 13.79.08 27.581-.04 41.372-.05 6.814-.004 13.63.072 20.445.106 3.917.02 7.837.167 11.75.007 4.373-.18 6.593-2.138 7.665-6.684.501-2.115.765-4.287.785-6.47.036-5.879-.183-11.76-.188-17.64-.008-8.23.043-16.46.152-24.69.079-6.383.338-12.765.382-19.149.024-3.778-.165-7.56-.349-11.336-.171-3.514-.527-3.855-3.696-4.17-.78-.077-1.564-.175-2.345-.174-9.247.013-18.492.04-27.737.08-.909.052-1.814.154-2.711.306z"/></g></g><defs><clipPath id="a"><path fill="#fff" d="M0 0h113v107H0z"/></clipPath></defs></svg>
